static/images/icon-2.svg

<?xml version="1.0" encoding="UTF-8"?>
<svg width="86px" height="86px" viewBox="0 0 86 86" version="1.1" xmlns="http://www.w3.org/2000/svg" xmlns:xlink="http://www.w3.org/1999/xlink">
    <title>Spotify_Icon_RGB_Green</title>
    <g id="Spotify_Icon_RGB_Green" stroke="none" stroke-width="1" fill="none" fill-rule="evenodd">
        <path d="M67.281,38.236 C53.784,30.2205 31.521,29.4835 18.6365,33.394 C16.567,34.022 14.379,32.854 13.752,30.785 C13.125,28.7145 14.292,26.528 16.3625,25.899 C31.153,21.4095 55.7405,22.2765 71.2785,31.5 C73.1395,32.605 73.75,35.0085 72.647,36.8665 C71.543,38.7275 69.1375,39.341 67.281,38.236 Z M66.839,50.108 C65.892,51.6445 63.883,52.1265 62.3485,51.183 C51.096,44.2665 33.9375,42.2625 20.625,46.3035 C18.8985,46.825 17.0755,45.852 16.551,44.1285 C16.031,42.4025 17.0045,40.5825 18.728,40.0575 C33.9355,35.4425 52.841,37.6775 65.765,45.62 C67.2995,46.565 67.7825,48.575 66.839,50.108 Z M61.7155,61.5095 C60.963,62.7435 59.3565,63.13 58.127,62.378 C48.2945,56.3685 35.9185,55.0115 21.3435,58.3405 C19.939,58.6625 18.539,57.7825 18.2185,56.378 C17.897,54.974 18.774,53.574 20.1815,53.2535 C36.1315,49.6075 49.813,51.1765 60.8495,57.9205 C62.08,58.672 62.4675,60.2795 61.7155,61.5095 Z M42.5125,1.116 C19.388,1.116 0.641,19.8625 0.641,42.987 C0.641,66.114 19.388,84.859 42.5125,84.859 C65.638,84.859 84.384,66.114 84.384,42.987 C84.384,19.8625 65.638,1.116 42.5125,1.116 L42.5125,1.116 Z" id="Fill-1" fill="#1ED760"></path>
    </g>
</svg>

<svg width="86" height="86" viewBox="0 0 86 86" xmlns="http://www.w3.org/2000/svg"><path d="M67.281 38.236c-13.497-8.015-35.76-8.752-48.645-4.842a3.916 3.916 0 11-2.273-7.495c14.79-4.49 39.377-3.623 54.915 5.601a3.917 3.917 0 01-3.997 6.736zm-.442 11.872a3.266 3.266 0 01-4.49 1.075c-11.253-6.916-28.411-8.92-41.724-4.88a3.27 3.27 0 01-4.074-2.174 3.269 3.269 0 012.177-4.072c15.207-4.614 34.113-2.38 47.037 5.563a3.265 3.265 0 011.074 4.488zM61.716 61.51a2.608 2.608 0 01-3.589.868c-9.833-6.01-22.209-7.367-36.784-4.038a2.609 2.609 0 11-1.162-5.087c15.95-3.645 29.632-2.077 40.668 4.667a2.61 2.61 0 01.867 3.59zM42.513 1.116C19.388 1.116.64 19.863.64 42.987c0 23.127 18.747 41.872 41.872 41.872s41.871-18.745 41.871-41.872c0-23.125-18.746-41.871-41.871-41.871z" fill="#1ED760" fill-rule="evenodd"/></svg>
